X: 924
T: Gül Hazin Sünbül Perîşan
C: Rahmi Bey
O: Turkey
F: http://compmusic.upf.edu/node/140
N: beyati--sarki--agiraksak--gul_hazin--rahmi_bey
N: makam= beyati
N: form= sarki
N: usul= agiraksak = 9/4
M: 9/4
L: 1/16
K: C _2/4B   
Q: 1/4=78
%%MIDI tuningsystem comma53
AA2B c2d2 e2fg fed2 e3d c2e2 d4 GABc d4  | 
w:  ARANAĞME  | 
e2f2 e2f2 a2g2 f2e2 d3c B2d2 c2d2 c4 B4  | \
w:   | 
G2A4a2 a3g g3^2/4f =f3e e3d d3c B2A2 G4  | 
w:   | 
AA2B c2d2 e2fg fed2 c3B B2BA A6ef edce  | 
w:   | 
d3/2c/de dcBc A2c2 B2c2 d6z2 d2e2 ^3/4f2{a}g2 =f2e2  | \
w:  *  *  *  *  *  *  *  *  *  Gül  *  ha zin  sün  | 
a2g2 f2e2 d2e2 d2{e}dc c3B B2{c}BA A6G2 c2BA  | 
w:  *  *  *  *  *  bül  *  *  pe *  rî *  *  *  *  *  şan   | 
A4 GABc d2c2 B2c2 d6f2 e2d2 c2B2 A4  | \
w:  *  SAZ *  *  *  *  bağ_ *  ı  zâ *  rın   | 
z2g2 f2e2 e3d d2{f}ed d6z2 e2fg fed2 .e2.c2  | 
w:  şev *  *  *  *  *  *  ki  *  yok   SAZ  | 
d3/2c/de dcBc d2d2 {_2/4e}d2e2 ^3/4f3e d4 ^2/4f4 g4 a2_b2  | \
w:  *  *  *  *  *  *  *  *  *  Derd *  *  *  nâk  *  *  ol  | 
a2g2 ^3/4f2_2/4e2 d2a2 .g2gf f3e e2{.f}ed d3c B2c2 d2=e2  | 
w:  *  *  *  *  *  muş  *  he *  zâr_ *  *  *  *  *  ı   | 
f8 z2{e}f4f2 f2e4d2 d2{f}ed c2B2 A2G2  | \
w:  *  *  nağ me kâ *  *  rın   | 
e2e2 d2c2 c3B B2BA A8 e2fg fed2 .e2.c2  | 
w:  *  şev *  *  *  *  *  ki  *  yok   SAZ  | 
d3/2c/de dcBc d2d2 {_2/4e}d2e2 ^3/4f3e d4 ^2/4f4 g4 a2_b2  | \
w:  *  *  *  *  *  *  *  *  *  Derd *  *  *  nâk  *  *  ol  | 
a2g2 ^3/4f2_2/4e2 d2a2 .g2gf f3e e2{.f}ed d3c B2c2 d2=e2  | 
w:  *  *  *  *  *  muş  *  he *  zâr_ *  *  *  *  *  ı   | 
f8 z2{e}f4f2 f2e4d2 d2{f}ed c2B2 A2G2  | \
w:  *  *  nağ me kâ *  *  rın   | 
e2e2 d2c2 c3B B2BA A8 a2_bc' bag2 ^3/4f2g2  | 
w:  *  şev *  *  *  *  *  ki  *  yok   SAZ  | 
a3_b ag^3/4fg a2g4a2 a8 a4 b4 a2b2  | \
w:  *  *  *  *  *  *  *  Baş ka  bir  hâ  | 
c'2_b2 a2g2 f2a2 g2gf f3_2/4e e2{f}ed d6c2 d2{f}ed  | 
w:  *  *  *  *  *  let *  le  *  çağ *  *  *  *  *  lar  *  SAZ  | 
d3/2_2/4e/^3/4fg afge d2dc B2c2 d2e2 f2g2 a2ba c'2b2 a2g2  | 
w:  *  *  *  *  *  *  *  *  *  cûy_ *  *  i  bâ *  *  *  rın   | 
z2c'4c'b b2{c'}ba a2{c'}ba a8 a2_bc' bag2 ^3/4f2g2  | \
w:  şev *  *  *  *  *  *  *  *  ki  *  yok   SAZ  | 
a3_b ag^3/4fg a2g4a2 a8 a4 b4 a2_3/4b2  | 
w:  *  *  *  *  *  *  *  Âh  e der  in  | 
c'2_b2 a2g2 g2a2 g2g2 g2fg a2ag g2{a}gf _2/4e2g2 f2g2  | 
w:  *  *  *  *  *  ler  *  ne sîm_ *  *  *  *  *  i   | 
{a}g2f4_2/4e2 z2a2 g2g2 g2^2/4f2 e2d2 d2ed dc2B .c4  | \
w:  *  *  *  *  bî *  ka ra *  *  *  rın   | 
^3/4fga4gf f3_2/4e e2ed d8 =e2=fg fed2 .e2.c2  | 
w:  şev *  *  *  *  *  *  *  ki  *  yok   SAZ  | 
d3/2c/de dcBc d2d2 {_2/4e}d2e2 ^3/4f3e d4 ^2/4f4 g4 a2_b2  | \
w:  *  *  *  *  *  *  *  *  *  Derd *  *  *  nâk  *  *  ol  | 
a2g2 ^3/4f2_2/4e2 d2a2 .g2gf f3e e2{.f}ed d3c B2c2 d2=e2  | 
w:  *  *  *  *  *  muş  *  he *  zâr_ *  *  *  *  *  ı   | 
f8 z2{e}f4f2 f2e4d2 d2{f}ed c2B2 A2G2  | \
w:  *  *  nağ me kâ *  *  rın   | 
e2e2 d2c2 c3B B2BA A8 e2fg fed2 .e2.c2  | 
w:  *  şev *  *  *  *  *  ki  *  yok   SAZ  | 
d3/2c/de dcBc d2d2 {_2/4e}d2e2 ^3/4f3e d4 ^2/4f4 g4 a2_b2  | \
w:  *  *  *  *  *  *  *  *  *  Derd *  *  *  nâk  *  *  ol  | 
a2g2 ^3/4f2_2/4e2 d2a2 .g2gf f3e e2{.f}ed d3c B2c2 d2=e2  | 
w:  *  *  *  *  *  muş  *  he *  zâr_ *  *  *  *  *  ı   | 
f8 z2{e}f4f2 f2e4d2 d2{f}ed c2B2 A2G2  | \
w:  *  *  nağ me kâ *  *  rın   | 
e2e2 d2c2 c3B B2BA A8 |
w:  *  şev *  *  *  *  *  ki  *  yok    | 


